src/assets/icons/letters,simple,serif-q.svg

<svg width="48" height="48" viewBox="0 0 48 48" fill="none" xmlns="http://www.w3.org/2000/svg">
<rect opacity="0.2" x="5" y="5" width="38" height="38" rx="4" fill="black"/>
<path d="M23.8917 12.6C25.7117 12.6 27.4117 12.91 28.9917 13.53C30.5717 14.15 31.9417 15.01 33.1017 16.11C34.2817 17.19 35.2017 18.47 35.8617 19.95C36.5417 21.41 36.8817 22.98 36.8817 24.66C36.8817 26.72 36.3717 28.62 35.3517 30.36C34.3517 32.08 32.9417 33.53 31.1217 34.71C30.7817 34.93 30.4517 35.13 30.1317 35.31C29.8317 35.47 29.4817 35.64 29.0817 35.82C28.6817 36 28.2117 36.19 27.6717 36.39C27.1517 36.59 26.5217 36.82 25.7817 37.08C25.3417 37.24 24.9617 37.38 24.6417 37.5C24.3417 37.62 24.0717 37.73 23.8317 37.83C23.5917 37.95 23.3717 38.06 23.1717 38.16C22.9917 38.28 22.8117 38.4 22.6317 38.52V38.64C22.7717 38.62 22.9517 38.6 23.1717 38.58C23.3917 38.58 23.6017 38.58 23.8017 38.58C24.6617 38.58 25.4717 38.67 26.2317 38.85C27.0117 39.05 27.7717 39.26 28.5117 39.48C29.2717 39.7 30.0317 39.9 30.7917 40.08C31.5517 40.28 32.3517 40.38 33.1917 40.38C34.1517 40.38 34.9017 40.21 35.4417 39.87C35.9817 39.53 36.4017 38.96 36.7017 38.16H37.8117C37.8517 38.42 37.8817 38.66 37.9017 38.88C37.9217 39.1 37.9317 39.29 37.9317 39.45C37.9317 40.07 37.7917 40.64 37.5117 41.16C37.2317 41.7 36.8417 42.16 36.3417 42.54C35.8417 42.94 35.2517 43.25 34.5717 43.47C33.8917 43.69 33.1617 43.8 32.3817 43.8C31.2617 43.8 30.2217 43.61 29.2617 43.23C28.3017 42.85 27.3817 42.43 26.5017 41.97C25.6217 41.51 24.7817 41.09 23.9817 40.71C23.1817 40.33 22.3917 40.14 21.6117 40.14C21.0717 40.14 20.6317 40.23 20.2917 40.41C19.9517 40.59 19.6417 40.78 19.3617 40.98C19.1017 41.2 18.8317 41.4 18.5517 41.58C18.2917 41.76 17.9717 41.85 17.5917 41.85C17.2517 41.85 16.9817 41.77 16.7817 41.61C16.5817 41.45 16.4817 41.25 16.4817 41.01C16.4817 40.67 16.6317 40.35 16.9317 40.05C17.2517 39.77 17.8317 39.4 18.6717 38.94L22.4517 36.81C20.8517 36.67 19.3617 36.26 17.9817 35.58C16.6017 34.9 15.4017 34.02 14.3817 32.94C13.3817 31.86 12.5917 30.62 12.0117 29.22C11.4317 27.8 11.1417 26.29 11.1417 24.69C11.1417 22.99 11.4617 21.4 12.1017 19.92C12.7617 18.44 13.6617 17.16 14.8017 16.08C15.9417 15 17.2917 14.15 18.8517 13.53C20.4117 12.91 22.0917 12.6 23.8917 12.6ZM23.8917 35.1C25.0717 35.1 26.1417 34.86 27.1017 34.38C28.0617 33.88 28.8717 33.18 29.5317 32.28C30.2117 31.38 30.7317 30.29 31.0917 29.01C31.4717 27.73 31.6617 26.31 31.6617 24.75C31.6617 23.19 31.4717 21.78 31.0917 20.52C30.7317 19.26 30.2117 18.19 29.5317 17.31C28.8717 16.43 28.0617 15.75 27.1017 15.27C26.1417 14.79 25.0717 14.55 23.8917 14.55C22.7117 14.55 21.6517 14.79 20.7117 15.27C19.7917 15.73 19.0117 16.4 18.3717 17.28C17.7317 18.16 17.2317 19.23 16.8717 20.49C16.5317 21.75 16.3617 23.17 16.3617 24.75C16.3617 26.35 16.5317 27.79 16.8717 29.07C17.2317 30.35 17.7317 31.44 18.3717 32.34C19.0317 33.22 19.8217 33.9 20.7417 34.38C21.6817 34.86 22.7317 35.1 23.8917 35.1Z" fill="black"/>
</svg>

<svg xmlns="http://www.w3.org/2000/svg" width="48" height="48" fill="none" viewBox="0 0 48 48">
  <rect width="38" height="38" x="5" y="5" fill="#000" opacity=".2" rx="4"/>
  <path fill="#000" d="M23.892 12.6c1.82 0 3.52.31 5.1.93 1.58.62 2.95 1.48 4.11 2.58 1.18 1.08 2.1 2.36 2.76 3.84.68 1.46 1.02 3.03 1.02 4.71 0 2.06-.51 3.96-1.53 5.7-1 1.72-2.41 3.17-4.23 4.35-.34.22-.67.42-.99.6-.3.16-.65.33-1.05.51s-.87.37-1.41.57c-.52.2-1.15.43-1.89.69-.44.16-.82.3-1.14.42-.3.12-.57.23-.81.33l-.66.33-.54.36v.12c.14-.02.32-.04.54-.06h.63c.86 0 1.67.09 2.43.27.78.2 1.54.41 2.28.63.76.22 1.52.42 2.28.6.76.2 1.56.3 2.4.3.96 0 1.71-.17 2.25-.51.54-.34.96-.91 1.26-1.71h1.11c.04.26.07.5.09.72.02.22.03.41.03.57 0 .62-.14 1.19-.42 1.71-.28.54-.67 1-1.17 1.38-.5.4-1.09.71-1.77.93-.68.22-1.41.33-2.19.33-1.12 0-2.16-.19-3.12-.57-.96-.38-1.88-.8-2.76-1.26-.88-.46-1.72-.88-2.52-1.26s-1.59-.57-2.37-.57c-.54 0-.98.09-1.32.27-.34.18-.65.37-.93.57-.26.22-.53.42-.81.6-.26.18-.58.27-.96.27-.34 0-.61-.08-.81-.24-.2-.16-.3-.36-.3-.6 0-.34.15-.66.45-.96.32-.28.9-.65 1.74-1.11l3.78-2.13c-1.6-.14-3.09-.55-4.47-1.23-1.38-.68-2.58-1.56-3.6-2.64-1-1.08-1.79-2.32-2.37-3.72-.58-1.42-.87-2.93-.87-4.53 0-1.7.32-3.29.96-4.77.66-1.48 1.56-2.76 2.7-3.84 1.14-1.08 2.49-1.93 4.05-2.55 1.56-.62 3.24-.93 5.04-.93zm0 22.5c1.18 0 2.25-.24 3.21-.72.96-.5 1.77-1.2 2.43-2.1.68-.9 1.2-1.99 1.56-3.27.38-1.28.57-2.7.57-4.26 0-1.56-.19-2.97-.57-4.23-.36-1.26-.88-2.33-1.56-3.21a6.814 6.814 0 00-2.43-2.04c-.96-.48-2.03-.72-3.21-.72-1.18 0-2.24.24-3.18.72-.92.46-1.7 1.13-2.34 2.01-.64.88-1.14 1.95-1.5 3.21-.34 1.26-.51 2.68-.51 4.26 0 1.6.17 3.04.51 4.32.36 1.28.86 2.37 1.5 3.27.66.88 1.45 1.56 2.37 2.04.94.48 1.99.72 3.15.72z"/>
</svg>
